!!!id: EG010
!!!page: 43-46
!!!COM: Anonymous
!!!LYR: Anonymous
!!!PTL@@FR: Chansons Populaires du Canada
!!!OTL@@FR: Au jardin de mon père un oranger lui ya
!!!PUB: G. E. Desbarats
!!!YEM:
!!!PDT: 1865
!!!SMA:
!!!OMD:
!!!AGN-Laforte:
!!!AGN-type:
!!!AGN-rime:
**kern
*clefG2
*k[]
*C:
*M2/4
*
*
=1
8cc
16cc
16b
8a
8b/
=2
4cc
4g
=3
8cc
16cc
16b
8a
8b/
!!LO:PB:g=original
=4
8cc
16dd
16b
8cc
8r
=5
8dd
16dd
16dd
8dd
8ee
=6
(8ffL
8eeJ)
8dd
8r
!!LO:PB:g=original
=7
8dd
16dd
16dd
8dd
8ee
=8
8ee
16dd
16cc
(8eeL
8ddJ)
=9
8cc
8cc
8b/
8a
!!LO:PB:g=original
=10
8cc
8cc
8b
16b
16b
=11
8a
8a
4g
=12
8g
8dd
8dd
8ff
!!LO:PB:g=original
=13
8ee
8gg
8cc
16cc
16cc
=14
8b
16a\
16b
8cc
8a
=15
8g
8r
4cc
!!LO:PB:g=original
=16
8b
16b
16b
8a
16a
16a
=17
8a\
16b
16cc
8dd
16dd
16dd
!!LO:PB:g=original
=18
8dd
16cc
16b
8a
8g
=19
8cc
8r
4cc
=20
8b
16b
16b
8a
16a
16a
!!LO:PB:g=original
=21
8a
16b
16cc
8dd
16dd
16dd
=22
8dd
16cc
16b
8a
8g
!!LO:PB:g=original
=23
4cc
8r
=24
.
==||
*
*
==|
!!!RNB: final eighth rest flipped backward
!!!RNB: final measure empty
*-
